X:2
T:Constant Billy
M:6/8
L:1/8
S:Adderbury
K:A
E|A2e c<Ac|d2B G2E|c>BA F2E|1 EFG A2:|2 EFG A3||cde f3|
Bcd e3|cde f3|Bcd e2 (3e/f/g/|a2e c<Ac|d2B G2E|c>BA F2E|EFG A2||
